svg/design/background_line.svg

<?xml version="1.0" encoding="UTF-8"?>
<svg width="24px" height="24px" viewBox="0 0 24 24" version="1.1" xmlns="http://www.w3.org/2000/svg" xmlns:xlink="http://www.w3.org/1999/xlink">
    <title>background_line</title>
    <g id="Icon" stroke="none" stroke-width="1" fill="none" fill-rule="evenodd">
        <g id="Design" transform="translate(-864.000000, -288.000000)" fill-rule="nonzero">
            <g id="background_line" transform="translate(864.000000, 288.000000)">
                <path d="M24,0 L24,24 L0,24 L0,0 L24,0 Z M12.5935,23.2578 L12.5819,23.2595 L12.5109,23.295 L12.4919,23.2987 L12.4767,23.295 L12.4057,23.2595 C12.3958,23.2564 12.387,23.259 12.3821,23.2649 L12.378,23.2758 L12.3609,23.7031 L12.3659,23.7235 L12.3769,23.7357 L12.4805,23.8097 L12.4953,23.8136 L12.5071,23.8097 L12.6107,23.7357 L12.6233,23.7197 L12.6267,23.7031 L12.6096,23.2758 C12.6076,23.2657 12.601,23.2593 12.5935,23.2578 Z M12.8584,23.1453 L12.8445,23.1473 L12.6598,23.2397 L12.6499,23.2499 L12.6472,23.2611 L12.6651,23.6906 L12.6699,23.7034 L12.6784,23.7105 L12.8793,23.8032 C12.8914,23.8069 12.9022,23.803 12.9078,23.7952 L12.9118,23.7812 L12.8777,23.1665 C12.8753,23.1546 12.8674,23.147 12.8584,23.1453 Z M12.143,23.1473 C12.1332,23.1424 12.1222,23.1453 12.1156,23.1526 L12.1099,23.1665 L12.0758,23.7812 C12.0751,23.7927 12.0828,23.8019 12.0926,23.8046 L12.1083,23.8032 L12.3092,23.7105 L12.3186,23.7024 L12.3225,23.6906 L12.3404,23.2611 L12.3372,23.2485 L12.3278,23.2397 L12.143,23.1473 Z" id="MingCute"></path>
                <path d="M20.7526,4.34151 C21.1163,4.75715 21.0742,5.38891 20.6585,5.75259 L4.65852,19.7526 C4.24288,20.1163 3.61112,20.0742 3.24744,19.6585 C2.88375,19.2429 2.92587,18.6111 3.34151,18.2474 L19.3415,4.24744 C19.7571,3.88375 20.3889,3.92587 20.7526,4.34151 Z M20.7525,10.7165 C21.1162,11.1321 21.0741,11.7639 20.6584,12.1276 L11.9442,19.7526 C11.5285,20.1163 10.8968,20.0742 10.5331,19.6585 C10.1694,19.2429 10.2115,18.6111 10.6272,18.2474 L19.3414,10.6224 C19.7571,10.2588 20.3888,10.3009 20.7525,10.7165 Z M19.3415,16.4974 C19.7571,16.1338 20.3889,16.1759 20.7526,16.5915 C21.0883231,16.9751308 21.0782757,17.5429793 20.7477842,17.9141305 L20.6585,18.0026 L18.6585,19.7526 C18.2429,20.1163 17.6111,20.0742 17.2474,19.6585 C16.9117692,19.2748692 16.9218237,18.7070207 17.2522371,18.3358695 L17.3415,18.2474 L19.3415,16.4974 Z M13.4669,4.34151 C13.8306,4.75715 13.7885,5.38891 13.3728,5.75259 L4.65852,13.3776 C4.24288,13.7413 3.61112,13.6992 3.24744,13.2835 C2.88375,12.8679 2.92587,12.2361 3.34151,11.8724 L12.0558,4.24744 C12.4714,3.88375 13.1032,3.92587 13.4669,4.34151 Z M5.77009,4.24744 C6.18573,3.88375 6.81749,3.92587 7.18117,4.34151 C7.51688385,4.72517769 7.50681876,5.29299497 7.17637169,5.66412542 L7.0871,5.75259 L4.65852,7.8776 C4.24288,8.24128 3.61112,8.19917 3.24744,7.78353 C2.91172615,7.39986231 2.92179124,6.83204503 3.25223831,6.46091458 L3.34151,6.37245 L5.77009,4.24744 Z" id="形状" fill="#09244B"></path>
            </g>
        </g>
    </g>
</svg>

<svg xmlns="http://www.w3.org/2000/svg" width="24" height="24"><g fill="none" fill-rule="nonzero"><path d="M24 0v24H0V0h24ZM12.594 23.258l-.012.002-.071.035-.02.004-.014-.004-.071-.036c-.01-.003-.019 0-.024.006l-.004.01-.017.428.005.02.01.013.104.074.015.004.012-.004.104-.074.012-.016.004-.017-.017-.427c-.002-.01-.009-.017-.016-.018Zm.264-.113-.014.002-.184.093-.01.01-.003.011.018.43.005.012.008.008.201.092c.012.004.023 0 .029-.008l.004-.014-.034-.614c-.003-.012-.01-.02-.02-.022Zm-.715.002a.023.023 0 0 0-.027.006l-.006.014-.034.614c0 .012.007.02.017.024l.015-.002.201-.093.01-.008.003-.011.018-.43-.003-.012-.01-.01-.184-.092Z"/><path fill="#09244B" d="M20.753 4.342a1 1 0 0 1-.095 1.41l-16 14a1 1 0 1 1-1.316-1.505l16-14a1 1 0 0 1 1.41.095Zm0 6.375a1 1 0 0 1-.095 1.41l-8.714 7.626a1 1 0 1 1-1.317-1.506l8.714-7.625a1 1 0 0 1 1.412.095Zm-1.412 5.78a1 1 0 0 1 1.407 1.417l-.09.089-2 1.75a1 1 0 0 1-1.406-1.417l.09-.089 2-1.75ZM13.468 4.342a1 1 0 0 1-.094 1.41l-8.714 7.626a1 1 0 1 1-1.317-1.506l8.714-7.625a1 1 0 0 1 1.41.095ZM5.77 4.247a1 1 0 0 1 1.406 1.417l-.089.089L4.66 7.878A1 1 0 0 1 3.252 6.46l.09-.089L5.77 4.247Z"/></g></svg>
